X:149
T: Push About the Jugg
N: O'Farrell's Pocket Companion v.2 (Sky ed. p.77)
M: 6/8
R: jig
L: 1/8
Q: 320
K: G
EGE G2A|BAG F2A|DED FAd|AFD FED|
EGE G2A|BAG FGA|BGE AFD|E3 B3 :|
AFA d3|dfe d3|AFA d2B|ABA FED|
B2e e2e|efd e3|B2e e2f|g2e fdB|
gba gfe|fag fed|efg dBG|AdG FED|
EFE G2A|BAG FGA|BGd AFD|E3 G3 :|
